modules/hawcons-filled/icons/icon-61-warning.svg

<?xml version="1.0" encoding="UTF-8" standalone="no"?>
<svg width="32px" height="32px" viewBox="0 0 32 32" version="1.1" xmlns="http://www.w3.org/2000/svg" xmlns:xlink="http://www.w3.org/1999/xlink" xmlns:sketch="http://www.bohemiancoding.com/sketch/ns">
    <!-- Generator: Sketch 3.0.3 (7891) - http://www.bohemiancoding.com/sketch -->
    <title>icon 61 warning</title>
    <desc>Created with Sketch.</desc>
    <defs></defs>
    <g id="Page-1" stroke="none" stroke-width="1" fill="none" fill-rule="evenodd" sketch:type="MSPage">
        <g id="icon-61-warning" sketch:type="MSArtboardGroup" fill="#929292">
            <path d="M14.3077969,6.05448962 C15.177863,4.64682663 16.5905922,4.65018129 17.4585848,6.05448962 L28.2436741,23.5034768 C29.4052031,25.382692 28.5591104,26.9060969 26.3549711,26.9060969 L5.41141065,26.9060969 C3.20677982,26.9060969 2.35742742,25.388761 3.52270757,23.5034768 L14.3077969,6.05448962 L14.3077969,6.05448962 Z M15.8835643,11.9060969 C15.3312795,11.9060969 14.8835643,12.3591332 14.8835643,12.903127 L14.8835643,18.9090667 C14.8835643,19.4597113 15.3274291,19.9060969 15.8835643,19.9060969 C16.435849,19.9060969 16.8835643,19.4530606 16.8835643,18.9090667 L16.8835643,12.903127 C16.8835643,12.3524825 16.4396994,11.9060969 15.8835643,11.9060969 L15.8835643,11.9060969 Z M15.8835643,23.9060969 C16.435849,23.9060969 16.8835643,23.4583816 16.8835643,22.9060969 C16.8835643,22.3538121 16.435849,21.9060969 15.8835643,21.9060969 C15.3312795,21.9060969 14.8835643,22.3538121 14.8835643,22.9060969 C14.8835643,23.4583816 15.3312795,23.9060969 15.8835643,23.9060969 L15.8835643,23.9060969 Z" id="warning" sketch:type="MSShapeGroup"></path>
        </g>
    </g>
</svg>

<svg width="32" height="32" viewBox="0 0 32 32" xmlns="http://www.w3.org/2000/svg"><path d="M14.308 6.054c.87-1.407 2.283-1.404 3.15 0l10.786 17.45c1.161 1.879.315 3.402-1.889 3.402H5.411c-2.204 0-3.054-1.517-1.888-3.403L14.308 6.054zm1.576 5.852c-.553 0-1 .453-1 .997v6.006c0 .55.443.997 1 .997.552 0 1-.453 1-.997v-6.006a.996.996 0 0 0-1-.997zm0 12a1 1 0 1 0 0-2 1 1 0 0 0 0 2z" fill="#929292" fill-rule="evenodd"/></svg>
